X: 16767
T: Harem Scarem
R: reel
M: 4/4
K: Dmajor
d2B2|:A4 A2B2A2F2 FFF2|G2F2G2B2 A4 d2e2|f4 f2f2g2f2 e2c2|d2B2A2F2 G4 F2G2|
A4 A2B2A2F2 FFF2|G2F2G2B2 A4 d2e2|f2a2g2e2 d2B2A2F2|1 E4 D4 D4 d2B2:|2 E4 D4 D4d2c2||
B4B2c2 B2A2F2D2|A,2B,2D2E2 F4 E2D2|E2F2G2A2 B2d2e2g2|f4 e4 e4 d2c2|
B4 B2c2 B2A2F2D2|A,2B,2D2E2 F4 E2D2|E2F2G2A2 B2d2A2F2|E4 D4 D4 d2c2|
B4 B2c2 B2A2F2D2|A,2B,2D2E2 F4 E2D2|E2F2G2A2 B2d2e2g2|f4 e4 e4 f2e2|
d2e2 f2 a4 f2 e2c2|d2B2A2F2 G4 F2E2|F2G2A2B2 A2F2d2F2|E4 D4 D4||

